X: 19
T:McKenna's No 1
M:4/4
L:1/8
S:Dermy Diamond, Belfast (fiddle)
R:Reel
D:Private tape - Belfast 198?
N:As played
H:Played as a set with McKenna's #2 (20)
Z:Bernie Stocks
K:G
G2dB cA{B}AF | G2Bc {d}cBcA | GBdB cA{B}AF | GBAF GE{G}ED | G2dB cA{B}AE |\
GABc d2fg | {a}gfge fdcA |1 GBAF GE~E2 :|2 GBAF G3e |: fdde fdcA | dg{a}gf geag |\
fd{e}de fdcA | FGAF G2eg | fdde fdcA | dg~g2 geag  | fd{e}de fdcA | FGAF G4 :|
<end>
<start>
